src/images/icons/repository.svg

<?xml version="1.0" encoding="utf-8"?>
<!-- Generated by IcoMoon.io -->
<!DOCTYPE svg PUBLIC "-//W3C//DTD SVG 1.1//EN" "http://www.w3.org/Graphics/SVG/1.1/DTD/svg11.dtd">
<svg version="1.1" xmlns="http://www.w3.org/2000/svg" xmlns:xlink="http://www.w3.org/1999/xlink" width="512" height="512" viewBox="0 0 512 512">
<path d="M433.777 416c25.488 0 46.223-20.734 46.223-46.222v-227.555c0-25.462-20.734-46.222-46.222-46.222h-115.776c-7.719 0-25.941-29.15-31.329-40.322-12.572-26.096-26.809-55.678-55.546-55.678h-153.669c-25.066 0-45.456 21.817-45.456 48.626v321.152c0 25.488 20.734 46.222 46.222 46.222h145.778v32h-160c-17.673 0-32 14.327-32 32v0c0 17.673 14.327 32 32 32h384c17.673 0 32-14.327 32-32v0c0-17.673-14.327-32-32-32h-160v-32h145.777zM95.463 54.404c0 0 0.282-1.929 0.537-2.404h133.255c4.521 4.755 11.672 17.845 16.065 27.276 2.529 5.416 5.159 11.096 8.019 16.724h-157.876v-41.596zM96 352l-0.026-192h320.026v192h-320z"></path>
</svg>

<?xml version="1.0" encoding="utf-8"?>
<!-- Generator: Adobe Illustrator 19.2.1, SVG Export Plug-In . SVG Version: 6.00 Build 0)  -->
<svg version="1.1" id="Layer_1" xmlns="http://www.w3.org/2000/svg" xmlns:xlink="http://www.w3.org/1999/xlink" x="0px" y="0px"
	 viewBox="0 0 512 512" style="enable-background:new 0 0 512 512;" xml:space="preserve">
<path class="lexicon-icon-body" fill="none" d="M433.8,416c25.5,0,46.2-20.7,46.2-46.2V142.2c0-25.5-20.7-46.2-46.2-46.2H318c-7.7,0-25.9-29.2-31.3-40.3
	C274.1,29.6,259.9,0,231.1,0H77.5C52.4,0,32,21.8,32,48.6v321.2c0,25.5,20.7,46.2,46.2,46.2H224v32H64c-17.7,0-32,14.3-32,32l0,0
	c0,17.7,14.3,32,32,32h384c17.7,0,32-14.3,32-32l0,0c0-17.7-14.3-32-32-32H288v-32L433.8,416L433.8,416z"/>
<path class="lexicon-icon-outline" d="M433.8,416c25.5,0,46.2-20.7,46.2-46.2V142.2c0-25.5-20.7-46.2-46.2-46.2H318c-7.7,0-25.9-29.2-31.3-40.3
	C274.1,29.6,259.9,0,231.1,0H77.5C52.4,0,32,21.8,32,48.6v321.2c0,25.5,20.7,46.2,46.2,46.2H224v32H64c-17.7,0-32,14.3-32,32l0,0
	c0,17.7,14.3,32,32,32h384c17.7,0,32-14.3,32-32l0,0c0-17.7-14.3-32-32-32H288v-32L433.8,416L433.8,416z M95.5,54.4
	c0,0,0.3-1.9,0.5-2.4h133.3c4.5,4.8,11.7,17.8,16.1,27.3c2.5,5.4,5.2,11.1,8,16.7H95.5V54.4z M96,352l0-192h320v192H96z"/>
</svg>
